dist/assets/img/corporulia/answerus/messages/message_1_1200.svg

<svg width="488" height="303" viewBox="0 0 488 303" fill="none" xmlns="http://www.w3.org/2000/svg">
<g filter="url(#filter0_di_1380_54396)">
<path fill-rule="evenodd" clip-rule="evenodd" d="M228.97 250.098C324.809 251.658 387.173 231.166 424.58 202.209C461.988 173.252 450.559 95.1887 411.546 63.7562C354.927 18.1382 135.606 16.0034 76.9526 58.3092C42.0247 83.5023 34.281 151.649 50.8375 191.75C51.6853 193.804 51.8093 196.135 50.7438 198.085C48.0665 202.983 44.6378 205.707 40.2555 209.189C39.8212 209.534 39.9634 210.213 40.5098 210.309C44.3117 210.974 48.4072 209.964 52.0889 208.326C55.5044 206.807 59.6427 207.546 62.162 210.307C62.5944 210.781 63.0338 211.243 63.4802 211.693C99.5121 247.99 169.352 249.127 228.943 250.097L228.97 250.098Z" fill="white"/>
</g>
<defs>
<filter id="filter0_di_1380_54396" x="0" y="0" width="487.444" height="302.182" filterUnits="userSpaceOnUse" color-interpolation-filters="sRGB">
<feFlood flood-opacity="0" result="BackgroundImageFix"/>
<feColorMatrix in="SourceAlpha" type="matrix" values="0 0 0 0 0 0 0 0 0 0 0 0 0 0 0 0 0 0 127 0" result="hardAlpha"/>
<feOffset dy="12"/>
<feGaussianBlur stdDeviation="20"/>
<feComposite in2="hardAlpha" operator="out"/>
<feColorMatrix type="matrix" values="0 0 0 0 0.909804 0 0 0 0 0.313726 0 0 0 0 0.470588 0 0 0 1 0"/>
<feBlend mode="normal" in2="BackgroundImageFix" result="effect1_dropShadow_1380_54396"/>
<feBlend mode="normal" in="SourceGraphic" in2="effect1_dropShadow_1380_54396" result="shape"/>
<feColorMatrix in="SourceAlpha" type="matrix" values="0 0 0 0 0 0 0 0 0 0 0 0 0 0 0 0 0 0 127 0" result="hardAlpha"/>
<feOffset dy="-4"/>
<feGaussianBlur stdDeviation="4"/>
<feComposite in2="hardAlpha" operator="arithmetic" k2="-1" k3="1"/>
<feColorMatrix type="matrix" values="0 0 0 0 0.909804 0 0 0 0 0.313726 0 0 0 0 0.470588 0 0 0 0.16 0"/>
<feBlend mode="normal" in2="shape" result="effect2_innerShadow_1380_54396"/>
</filter>
</defs>
</svg>

<svg width="488" height="303" viewBox="0 0 488 303" fill="none" xmlns="http://www.w3.org/2000/svg"><g filter="url(#filter0_di_1380_54396)"><path fill-rule="evenodd" clip-rule="evenodd" d="M228.97 250.098c95.839 1.56 158.203-18.932 195.61-47.889 37.408-28.957 25.979-107.02-13.034-138.453-56.619-45.618-275.94-47.753-334.593-5.447C42.025 83.502 34.28 151.65 50.837 191.75c.848 2.054.972 4.385-.093 6.335-2.678 4.898-6.106 7.622-10.489 11.104-.434.345-.292 1.024.255 1.12 3.802.665 7.897-.345 11.579-1.983 3.415-1.519 7.554-.78 10.073 1.981.432.474.872.936 1.318 1.386 36.032 36.297 105.872 37.434 165.463 38.404l.027.001z" fill="#fff"/></g><defs><filter id="filter0_di_1380_54396" x="0" y="0" width="487.444" height="302.182" filterUnits="userSpaceOnUse" color-interpolation-filters="sRGB"><feFlood flood-opacity="0" result="BackgroundImageFix"/><feColorMatrix in="SourceAlpha" values="0 0 0 0 0 0 0 0 0 0 0 0 0 0 0 0 0 0 127 0" result="hardAlpha"/><feOffset dy="12"/><feGaussianBlur stdDeviation="20"/><feComposite in2="hardAlpha" operator="out"/><feColorMatrix values="0 0 0 0 0.909804 0 0 0 0 0.313726 0 0 0 0 0.470588 0 0 0 1 0"/><feBlend in2="BackgroundImageFix" result="effect1_dropShadow_1380_54396"/><feBlend in="SourceGraphic" in2="effect1_dropShadow_1380_54396" result="shape"/><feColorMatrix in="SourceAlpha" values="0 0 0 0 0 0 0 0 0 0 0 0 0 0 0 0 0 0 127 0" result="hardAlpha"/><feOffset dy="-4"/><feGaussianBlur stdDeviation="4"/><feComposite in2="hardAlpha" operator="arithmetic" k2="-1" k3="1"/><feColorMatrix values="0 0 0 0 0.909804 0 0 0 0 0.313726 0 0 0 0 0.470588 0 0 0 0.16 0"/><feBlend in2="shape" result="effect2_innerShadow_1380_54396"/></filter></defs></svg>
